;FLAVOR:Marlin
;TIME:26804
;Filament used: 33.7616m
;Layer height: 0.3
;MINX:9.4
;MINY:32.899
;MINZ:0.2
;MAXX:210.6
;MAXY:194.1
;MAXZ:6.8
;Generated with Creality Slicer 4.8.2-254
M140 S60
M105
M190 S60
M104 S200
M105
M109 S200
M82 ;absolute extrusion mode

G28 ;Home

G92 E0 ;Reset Extruder
G1 Z2.0 F3000 ;Move Z Axis up
G1 X10.1 Y20 Z0.28 F5000.0 ;Move to start position
G1 X10.1 Y200.0 Z0.28 F1500.0 E15 ;Draw the first line
G1 X10.4 Y200.0 Z0.28 F5000.0 ;Move to side a little
G1 X10.4 Y20 Z0.28 F1500.0 E30 ;Draw the second line
G92 E0 ;Reset Extruder
G1 Z2.0 F3000 ;Move Z Axis up

G92 E0
G92 E0
G1 F2400 E-0.8
;LAYER_COUNT:23
;LAYER:0
M107
M204 S2000
G0 F7500 X16.494 Y49.668 Z0.2
M204 S500
;TYPE:SKIRT
G1 F2400 E0
G1 F1500 X17.74 Y49.261 E0.04142
G1 X18.143 Y49.157 E0.05457
G1 X20.089 Y48.676 E0.11791
G1 X22.515 Y48.003 E0.19746
G1 X24.896 Y47.27 E0.27617
G1 X27.283 Y46.459 E0.35583
G1 X29.664 Y45.576 E0.43607
G1 X31.987 Y44.638 E0.51523
G1 X34.294 Y43.629 E0.59479
G1 X36.563 Y42.561 E0.67403
G1 X38.817 Y41.42 E0.75385
G1 X41.053 Y40.208 E0.83422
G1 X43.2 Y38.963 E0.91264
G1 X45.338 Y37.641 E0.99206
G1 X47.469 Y36.24 E1.07264
G1 X49.232 Y35.007 E1.14062
G1 X49.53 Y34.805 E1.152
G1 X50.328 Y34.312 E1.18163
G1 X51.165 Y33.889 E1.21127
G1 X52.035 Y33.539 E1.2409
G1 X52.932 Y33.264 E1.27054
G1 X53.849 Y33.067 E1.30018
G1 X54.779 Y32.949 E1.3298
G1 X55.395 Y32.914 E1.34929
G1 X55.753 Y32.904 E1.36061
G1 X56.059 Y32.9 E1.37028
G1 X68.745 Y32.9 E1.77112
G1 X69.454 Y32.91 E1.79352
G1 X70.39 Y32.963 E1.82315
G1 X71.319 Y33.096 E1.8528
G1 X72.233 Y33.307 E1.88244
G1 X73.125 Y33.596 E1.91207
G1 X73.687 Y33.822 E1.93121
G1 X74.443 Y34.151 E1.95726
G1 X76.826 Y35.148 E2.03888
G1 X79.213 Y36.071 E2.11974
G1 X81.527 Y36.885 E2.19725
G1 X83.944 Y37.662 E2.27747
G1 X86.36 Y38.365 E2.35697
G1 X88.793 Y38.999 E2.43642
G1 X91.244 Y39.564 E2.51589
G1 X93.755 Y40.069 E2.59682
G1 X96.187 Y40.484 E2.67478
G1 X98.703 Y40.843 E2.75508
G1 X101.193 Y41.126 E2.83426
G1 X103.7 Y41.34 E2.91377
G1 X106.216 Y41.482 E2.99339
G1 X108.712 Y41.554 E3.07229
G1 X111.236 Y41.554 E3.15204
G1 X113.786 Y41.483 E3.23265
G1 X116.247 Y41.343 E3.31053
G1 X118.793 Y41.127 E3.39127
G1 X121.273 Y40.846 E3.47013
G1 X123.81 Y40.485 E3.5511
G1 X126.261 Y40.066 E3.62967
G1 X128.701 Y39.578 E3.70829
G1 X131.183 Y39.006 E3.78877
G1 X133.589 Y38.38 E3.86732
G1 X136.052 Y37.665 E3.94836
G1 X138.405 Y36.909 E4.02645
G1 X140.815 Y36.059 E4.1072
G1 X143.129 Y35.167 E4.18556
G1 X145.503 Y34.177 E4.26683
G1 X145.934 Y33.985 E4.28174
G1 X146.414 Y33.78 E4.29823
G1 X147.292 Y33.451 E4.32786
G1 X148.196 Y33.199 E4.35751
G1 X149.117 Y33.025 E4.38713
G1 X150.395 Y32.914 E4.42766
G1 X150.754 Y32.904 E4.43901
G1 X151.059 Y32.9 E4.44864
G1 X163.589 Y32.899 E4.84456
G1 X164.453 Y32.91 E4.87186
G1 X165.39 Y32.963 E4.90151
G1 X166.318 Y33.096 E4.93113
G1 X167.232 Y33.307 E4.96077
G1 X168.124 Y33.596 E4.9904
G1 X168.989 Y33.959 E5.02004
G1 X169.819 Y34.395 E5.04967
G1 X170.585 Y34.883 E5.07836
G1 X171.601 Y35.591 E5.11749
G1 X173.771 Y37.055 E5.2002
G1 X175.903 Y38.409 E5.28
G1 X178.044 Y39.683 E5.35872
G1 X180.263 Y40.921 E5.43901
G1 X182.489 Y42.081 E5.51833
G1 X184.761 Y43.185 E5.59814
G1 X187.04 Y44.214 E5.67715
G1 X189.4 Y45.202 E5.75799
G1 X191.703 Y46.086 E5.83593
G1 X194.106 Y46.933 E5.91644
G1 X196.502 Y47.703 E5.99596
G1 X198.894 Y48.397 E6.07466
G1 X201.342 Y49.034 E6.15458
G1 X202.115 Y49.224 E6.17974
G1 X203.016 Y49.486 E6.20938
G1 X203.891 Y49.824 E6.23902
G1 X204.734 Y50.235 E6.26866
G1 X205.539 Y50.716 E6.29829
G1 X206.3 Y51.265 E6.32794
G1 X207.315 Y52.171 E6.37093
G1 X207.409 Y52.266 E6.37515
G1 X208.04 Y52.96 E6.40479
G1 X208.609 Y53.706 E6.43443
G1 X209.113 Y54.497 E6.46407
G1 X209.547 Y55.328 E6.49369
G1 X209.909 Y56.193 E6.52332
G1 X210.196 Y57.086 E6.55295
G1 X210.406 Y58 E6.58259
G1 X210.537 Y58.929 E6.61223
G1 X210.584 Y59.654 E6.63519
G1 X210.594 Y59.969 E6.64515
G1 X210.6 Y60.318 E6.65617
G1 X210.6 Y166.423 E10.00879
G1 X210.59 Y167.147 E10.03167
G1 X210.537 Y168.083 E10.06129
G1 X210.405 Y169.012 E10.09094
G1 X210.193 Y169.926 E10.12058
G1 X209.905 Y170.818 E10.1502
G1 X209.542 Y171.683 E10.17984
G1 X209.107 Y172.513 E10.20945
G1 X208.602 Y173.304 E10.2391
G1 X208.032 Y174.049 E10.26874
G1 X207.4 Y174.742 E10.29838
G1 X206.855 Y175.256 E10.32205
G1 X206.739 Y175.358 E10.32693
G1 X206.009 Y175.946 E10.35655
G1 X205.231 Y176.471 E10.3862
G1 X204.412 Y176.927 E10.41582
G1 X203.556 Y177.312 E10.44548
G1 X202.26 Y177.739 E10.48859
G1 X201.857 Y177.843 E10.50175
G1 X199.911 Y178.324 E10.56508
G1 X197.485 Y178.997 E10.64463
G1 X195.104 Y179.73 E10.72335
G1 X192.717 Y180.541 E10.80301
G1 X190.336 Y181.424 E10.88325
G1 X188.013 Y182.362 E10.9624
G1 X185.706 Y183.371 E11.04197
G1 X183.437 Y184.439 E11.1212
G1 X181.183 Y185.58 E11.20103
G1 X178.947 Y186.792 E11.28139
G1 X176.804 Y188.035 E11.35967
G1 X174.662 Y189.359 E11.43924
G1 X172.547 Y190.749 E11.51921
G1 X170.773 Y191.99 E11.58761
G1 X170.45 Y192.208 E11.59993
G1 X169.651 Y192.699 E11.62956
G1 X168.813 Y193.12 E11.65919
G1 X167.942 Y193.468 E11.68883
G1 X167.045 Y193.741 E11.71845
G1 X166.127 Y193.936 E11.74811
G1 X165.197 Y194.053 E11.77772
G1 X164.605 Y194.086 E11.79646
G1 X164.249 Y194.096 E11.80771
G1 X163.941 Y194.1 E11.81744
G1 X151.255 Y194.1 E12.21828
G1 X150.547 Y194.09 E12.24066
G1 X149.61 Y194.037 E12.27031
G1 X148.682 Y193.904 E12.29993
G1 X147.768 Y193.693 E12.32957
G1 X146.876 Y193.404 E12.3592
G1 X146.318 Y193.18 E12.3782
G1 X145.542 Y192.843 E12.40493
G1 X143.174 Y191.852 E12.48604
G1 X140.787 Y190.929 E12.5669
G1 X138.473 Y190.115 E12.64441
G1 X136.056 Y189.338 E12.72463
G1 X133.64 Y188.635 E12.80414
G1 X131.207 Y188.001 E12.88358
G1 X128.756 Y187.436 E12.96306
G1 X126.245 Y186.931 E13.04398
G1 X123.813 Y186.516 E13.12194
G1 X121.297 Y186.157 E13.20224
G1 X118.807 Y185.874 E13.28143
G1 X116.3 Y185.66 E13.36093
G1 X113.784 Y185.518 E13.44055
G1 X111.288 Y185.446 E13.51945
G1 X108.764 Y185.446 E13.5992
G1 X106.214 Y185.517 E13.67981
G1 X103.753 Y185.657 E13.75769
G1 X101.207 Y185.873 E13.83843
G1 X98.727 Y186.154 E13.91729
G1 X96.19 Y186.515 E13.99826
G1 X93.739 Y186.934 E14.07683
G1 X91.299 Y187.422 E14.15545
G1 X88.817 Y187.994 E14.23593
G1 X86.411 Y188.62 E14.31449
G1 X83.948 Y189.335 E14.39552
G1 X81.595 Y190.091 E14.47361
G1 X79.185 Y190.941 E14.55436
G1 X76.871 Y191.833 E14.63272
G1 X74.516 Y192.815 E14.71334
G1 X74.076 Y193.011 E14.72856
G1 X73.583 Y193.221 E14.74549
G1 X72.704 Y193.549 E14.77514
G1 X71.801 Y193.801 E14.80476
G1 X70.88 Y193.976 E14.83438
G1 X69.605 Y194.086 E14.87482
G1 X69.247 Y194.096 E14.88613
G1 X68.941 Y194.1 E14.8958
G1 X56.255 Y194.1 E15.29664
G1 X55.547 Y194.09 E15.31902
G1 X54.61 Y194.037 E15.34867
G1 X53.682 Y193.904 E15.37829
G1 X52.768 Y193.693 E15.40793
G1 X51.876 Y193.404 E15.43756
G1 X51.011 Y193.041 E15.4672
G1 X50.181 Y192.605 E15.49682
G1 X49.415 Y192.117 E15.52552
G1 X48.399 Y191.409 E15.56465
G1 X46.229 Y189.945 E15.64736
G1 X44.087 Y188.585 E15.72753
G1 X41.956 Y187.317 E15.80588
G1 X39.737 Y186.079 E15.88617
G1 X37.511 Y184.919 E15.96548
G1 X35.239 Y183.815 E16.0453
G1 X32.96 Y182.786 E16.12431
G1 X30.6 Y181.798 E16.20515
G1 X28.297 Y180.914 E16.28309
G1 X25.894 Y180.067 E16.3636
G1 X23.498 Y179.297 E16.44312
G1 X21.102 Y178.602 E16.52195
G1 X18.658 Y177.966 E16.60174
G1 X17.885 Y177.776 E16.62689
G1 X16.984 Y177.514 E16.65654
G1 X16.109 Y177.176 E16.68618
G1 X15.266 Y176.765 E16.71581
G1 X14.461 Y176.284 E16.74545
G1 X13.7 Y175.735 E16.77509
G1 X12.989 Y175.124 E16.80472
G1 X12.605 Y174.747 E16.82172
G1 X12.511 Y174.65 E16.82599
G1 X11.887 Y173.949 E16.85564
G1 X11.326 Y173.198 E16.88526
G1 X10.83 Y172.402 E16.91489
G1 X10.405 Y171.566 E16.94453
G1 X10.052 Y170.697 E16.97416
G1 X9.774 Y169.801 E17.00381
G1 X9.574 Y168.885 E17.03343
G1 X9.452 Y167.955 E17.06307
G1 X9.415 Y167.32 E17.08317
G1 X9.405 Y166.982 E17.09385
G1 X9.4 Y166.657 E17.10412
G1 X9.4 Y60.51 E20.45806
G1 X9.41 Y59.84 E20.47923
G1 X9.464 Y58.904 E20.50886
G1 X9.598 Y57.975 E20.53852
G1 X9.81 Y57.062 E20.56813
G1 X10.099 Y56.169 E20.59779
G1 X10.463 Y55.305 E20.62741
G1 X10.9 Y54.475 E20.65705
G1 X11.405 Y53.685 E20.68668
G1 X11.976 Y52.941 E20.71631
G1 X12.608 Y52.248 E20.74595
G1 X13.186 Y51.708 E20.77094
G1 X13.302 Y51.607 E20.7758
G1 X14.035 Y51.022 E20.80543
G1 X14.815 Y50.501 E20.83507
G1 X15.636 Y50.049 E20.86468
G1 X16.494 Y49.668 E20.89435
M204 S2000
G0 F7500 X16.703 Y50.016
M204 S500
G1 F1500 X17.841 Y49.648 E20.93214
G1 X18.239 Y49.545 E20.94513
G1 X20.187 Y49.064 E21.00853
G1 X22.625 Y48.387 E21.08848
G1 X25.015 Y47.651 E21.16749
G1 X27.446 Y46.826 E21.24861
G1 X29.805 Y45.95 E21.32812
G1 X32.118 Y45.017 E21.40692
G1 X34.489 Y43.98 E21.48869
G1 X36.736 Y42.922 E21.56717
G1 X39.009 Y41.771 E21.64767
G1 X41.238 Y40.563 E21.72778
G1 X43.39 Y39.315 E21.80638
G1 X45.588 Y37.956 E21.88804
G1 X47.649 Y36.601 E21.96597
G1 X49.456 Y35.338 E22.03563
G1 X49.754 Y35.136 E22.04701
G1 X50.538 Y34.653 E22.0761
G1 X51.361 Y34.24 E22.1052
G1 X52.216 Y33.899 E22.13428
G1 X53.098 Y33.635 E22.16337
G1 X54 Y33.448 E22.19248
G1 X54.914 Y33.339 E22.22156
G1 X55.406 Y33.314 E22.23713
G1 X55.764 Y33.304 E22.24845
G1 X56.059 Y33.3 E22.25777
G1 X68.739 Y33.3 E22.65842
G1 X69.448 Y33.31 E22.68082
G1 X70.368 Y33.363 E22.70994
G1 X71.279 Y33.496 E22.73903
G1 X72.175 Y33.707 E22.76812
G1 X73.049 Y33.995 E22.79719
G1 X73.528 Y34.189 E22.81352
G1 X74.279 Y34.516 E22.83941
G1 X76.676 Y35.519 E22.92151
G1 X79.063 Y36.441 E23.00236
G1 X81.421 Y37.271 E23.08135
G1 X83.816 Y38.041 E23.16084
G1 X86.262 Y38.753 E23.24133
G1 X88.708 Y39.39 E23.3212
G1 X91.181 Y39.96 E23.40138
G1 X93.642 Y40.455 E23.4807
G1 X96.141 Y40.882 E23.56081
G1 X98.637 Y41.238 E23.64047
G1 X101.146 Y41.523 E23.72026
G1 X103.678 Y41.739 E23.80055
G1 X106.184 Y41.881 E23.87986
G1 X108.735 Y41.954 E23.9605
G1 X111.247 Y41.954 E24.03987
G1 X113.784 Y41.883 E24.12007
G1 X116.305 Y41.74 E24.19985
G1 X118.836 Y41.526 E24.28011
G1 X121.303 Y41.246 E24.35856
G1 X123.862 Y40.882 E24.44023
G1 X126.335 Y40.459 E24.5195
G1 X128.771 Y39.972 E24.598
G1 X131.293 Y39.391 E24.67977
G1 X133.706 Y38.763 E24.75856
G1 X136.171 Y38.047 E24.83966
G1 X138.555 Y37.281 E24.91878
G1 X140.924 Y36.445 E24.99816
G1 X143.278 Y35.538 E25.07787
G1 X145.677 Y34.537 E25.16001
G1 X146.277 Y34.272 E25.18073
G1 X146.57 Y34.148 E25.19078
G1 X147.432 Y33.827 E25.21985
G1 X148.32 Y33.581 E25.24896
G1 X149.225 Y33.413 E25.27805
G1 X150.406 Y33.314 E25.31549
G1 X150.765 Y33.304 E25.32684
G1 X151.059 Y33.3 E25.33613
G1 X163.589 Y33.299 E25.73204
G1 X164.448 Y33.31 E25.75919
G1 X165.367 Y33.363 E25.78827
G1 X166.278 Y33.496 E25.81736
G1 X167.174 Y33.707 E25.84645
G1 X168.048 Y33.995 E25.87553
G1 X168.895 Y34.357 E25.90463
G1 X169.706 Y34.792 E25.93371
G1 X170.357 Y35.211 E25.95817
G1 X171.433 Y35.96 E25.9996
G1 X173.538 Y37.381 E26.07984
G1 X175.675 Y38.738 E26.15983
G1 X177.866 Y40.042 E26.24039
G1 X180.09 Y41.282 E26.32085
G1 X182.308 Y42.439 E26.39989
G1 X184.571 Y43.538 E26.47938
G1 X186.9 Y44.59 E26.56013
G1 X189.227 Y45.563 E26.63983
G1 X191.607 Y46.477 E26.72038
G1 X193.956 Y47.305 E26.79908
G1 X196.374 Y48.082 E26.87933
G1 X198.8 Y48.786 E26.95915
G1 X201.276 Y49.431 E27.03999
G1 X202.02 Y49.613 E27.0642
G1 X202.904 Y49.871 E27.09329
G1 X203.762 Y50.204 E27.12237
G1 X204.588 Y50.611 E27.15147
G1 X205.375 Y51.088 E27.18055
G1 X206.119 Y51.631 E27.20965
G1 X207.031 Y52.452 E27.24842
G1 X207.125 Y52.547 E27.25265
G1 X207.743 Y53.229 E27.28173
G1 X208.3 Y53.962 E27.31082
G1 X208.792 Y54.741 E27.33993
G1 X209.214 Y55.559 E27.36901
G1 X209.563 Y56.411 E27.3981
G1 X209.837 Y57.29 E27.4272
G1 X210.034 Y58.189 E27.45627
G1 X210.152 Y59.102 E27.48536
G1 X210.185 Y59.667 E27.50325
G1 X210.195 Y59.982 E27.5132
G1 X210.2 Y60.318 E27.52382
G1 X210.2 Y166.417 E30.87625
G1 X210.19 Y167.141 E30.89912
G1 X210.137 Y168.061 E30.92824
G1 X210.005 Y168.972 E30.95733
G1 X209.794 Y169.868 E30.98641
G1 X209.507 Y170.742 E31.01548
G1 X209.144 Y171.589 E31.0446
G1 X208.709 Y172.4 E31.07367
G1 X208.206 Y173.171 E31.10276
G1 X207.637 Y173.895 E31.13186
G1 X207.008 Y174.567 E31.16094
G1 X206.591 Y174.955 E31.17894
G1 X206.475 Y175.057 E31.18382
G1 X205.757 Y175.635 E31.21294
G1 X204.993 Y176.148 E31.24202
G1 X204.187 Y176.592 E31.2711
G1 X203.345 Y176.965 E31.3002
G1 X202.159 Y177.352 E31.33961
G1 X201.761 Y177.455 E31.3526
G1 X199.813 Y177.936 E31.416
G1 X197.375 Y178.613 E31.49595
G1 X194.985 Y179.349 E31.57497
G1 X192.554 Y180.174 E31.65609
G1 X190.195 Y181.05 E31.7356
G1 X187.882 Y181.983 E31.8144
G1 X185.511 Y183.02 E31.89617
G1 X183.264 Y184.078 E31.97465
G1 X180.991 Y185.229 E32.05515
G1 X178.762 Y186.437 E32.13526
G1 X176.61 Y187.685 E32.21386
G1 X174.412 Y189.044 E32.29551
G1 X172.327 Y190.414 E32.37434
G1 X170.549 Y191.658 E32.44291
G1 X170.226 Y191.876 E32.45522
G1 X169.441 Y192.358 E32.48433
G1 X168.618 Y192.769 E32.51339
G1 X167.761 Y193.108 E32.54252
G1 X166.879 Y193.37 E32.57159
G1 X165.977 Y193.556 E32.60069
G1 X165.063 Y193.662 E32.62976
G1 X164.594 Y193.686 E32.6446
G1 X164.238 Y193.696 E32.65585
G1 X163.941 Y193.7 E32.66524
G1 X151.26 Y193.7 E33.06592
G1 X150.552 Y193.69 E33.08829
G1 X149.633 Y193.637 E33.11738
G1 X148.722 Y193.504 E33.14647
G1 X147.826 Y193.293 E33.17556
G1 X146.952 Y193.005 E33.20463
G1 X146.478 Y192.813 E33.22079
G1 X145.734 Y192.49 E33.24642
G1 X143.324 Y191.481 E33.32897
G1 X140.937 Y190.559 E33.40983
G1 X138.579 Y189.729 E33.48881
G1 X136.184 Y188.959 E33.5683
G1 X133.738 Y188.247 E33.6488
G1 X131.292 Y187.61 E33.72866
G1 X128.819 Y187.04 E33.80885
G1 X126.358 Y186.545 E33.88817
G1 X123.859 Y186.118 E33.96827
G1 X121.363 Y185.762 E34.04794
G1 X118.854 Y185.477 E34.12773
G1 X116.322 Y185.261 E34.20802
G1 X113.816 Y185.119 E34.28733
G1 X111.265 Y185.046 E34.36797
G1 X108.753 Y185.046 E34.44734
G1 X106.216 Y185.117 E34.52753
G1 X103.695 Y185.26 E34.60732
G1 X101.164 Y185.474 E34.68757
G1 X98.697 Y185.754 E34.76602
G1 X96.138 Y186.118 E34.8477
G1 X93.665 Y186.541 E34.92697
G1 X91.229 Y187.028 E35.00546
G1 X88.707 Y187.609 E35.08724
G1 X86.294 Y188.237 E35.16602
G1 X83.829 Y188.953 E35.24713
G1 X81.445 Y189.719 E35.32625
G1 X79.076 Y190.555 E35.40563
G1 X76.722 Y191.462 E35.48534
G1 X74.326 Y192.461 E35.56736
G1 X73.732 Y192.724 E35.58789
G1 X73.427 Y192.853 E35.59835
G1 X72.564 Y193.174 E35.62744
G1 X71.677 Y193.42 E35.65653
G1 X70.772 Y193.587 E35.68561
G1 X69.594 Y193.686 E35.72296
G1 X69.236 Y193.696 E35.73428
G1 X68.941 Y193.7 E35.7436
G1 X56.26 Y193.7 E36.14428
G1 X55.552 Y193.69 E36.16665
G1 X54.633 Y193.637 E36.19574
G1 X53.722 Y193.504 E36.22483
G1 X52.826 Y193.293 E36.25391
G1 X51.952 Y193.005 E36.28299
G1 X51.105 Y192.643 E36.3121
G1 X50.294 Y192.208 E36.34117
G1 X49.643 Y191.789 E36.36564
G1 X48.567 Y191.04 E36.40706
G1 X46.462 Y189.619 E36.48731
G1 X44.325 Y188.262 E36.5673
G1 X42.134 Y186.958 E36.64786
G1 X39.91 Y185.718 E36.72832
G1 X37.692 Y184.561 E36.80736
G1 X35.429 Y183.462 E36.88685
G1 X33.1 Y182.41 E36.9676
G1 X30.773 Y181.437 E37.04729
G1 X28.393 Y180.523 E37.12785
G1 X26.044 Y179.695 E37.20655
G1 X23.626 Y178.918 E37.2868
G1 X21.2 Y178.214 E37.36661
G1 X18.724 Y177.569 E37.44746
G1 X17.98 Y177.387 E37.47166
G1 X17.096 Y177.129 E37.50076
G1 X16.238 Y176.796 E37.52984
G1 X15.412 Y176.389 E37.55893
G1 X14.625 Y175.912 E37.58801
G1 X13.881 Y175.369 E37.61712
G1 X12.892 Y174.469 E37.65937
G1 X12.798 Y174.372 E37.66364
G1 X12.187 Y173.683 E37.69273
G1 X11.637 Y172.945 E37.72182
G1 X11.154 Y172.161 E37.75091
G1 X10.741 Y171.338 E37.78001
G1 X10.4 Y170.483 E37.80909
G1 X10.135 Y169.601 E37.83819
